X:329
T:Speed the Plough
R:hp 32 reel
M:4/4
L:1/8
K:G
GABc dedB|dedB dedB|c2ec B2dB|c2 A2 A4|
GABc dedB|dedB dedB|c2ec B2dB|c2 A2 G4:|
g2 g2 g4|g2fe dBGB|c2ec B2dB|c2 A2 A4|
g2 g2 g4|g2fe dBGB|c2ec B2dB|c2 A2 G4:|

